X: 12352
T: Falls Of Divach, The
R: strathspey
M: 4/4
K: Dmajor
A>D F>D (A<D) D2|E>A, C>A, (E<A,) A,2|A>D F>D (A<D) D2|1 (E<A,) A,>C D2D z:|2 (E<A,) A,>C D2D g||
f<a d>a f<a d>d|c<e A>e c<e A>g|f<a d>a f<a d>d|e<A A>c {c}d2d>g|
f<a d>a f<a d>d|c<e A>e c<e A>c|(3def (3efg (3fga (3gfe|(3dcB (3ABc {c}d2 d z||

